src/assets/Imgs/proposal/shareIcon.svg

<svg fill="none" height="44" viewBox="0 0 44 44" width="44" xmlns="http://www.w3.org/2000/svg"><rect fill="#ff7193" height="44" rx="8" width="44" y=".000244"/><path clip-rule="evenodd" d="m21.033 18.0529c-.7236-.144-1.2703-.7645-1.2703-1.5022v-1.0651c0-1.3207-1.5967-1.9821-2.5306-1.0482l-6.7979 6.7979c-.57893.5789-.57893 1.5175 0 2.0964l6.7979 6.798c.9339.9338 2.5306.2724 2.5306-1.0483v-1.0166c0-.8187.6649-1.4866 1.4828-1.4492 3.9035.1783 7.1525 1.0801 9.8695 2.779 1.3544.8468 3.4653-.3486 2.7357-1.7695-2.3227-4.5243-6.3139-8.2777-12.8177-9.5722z" fill="#fff" fill-rule="evenodd"/></svg>

<svg width="44" height="44" viewBox="0 0 44 44" fill="none" xmlns="http://www.w3.org/2000/svg">
<rect y="0.000244141" width="44" height="44" rx="8" fill="#FF7193"/>
<path fill-rule="evenodd" clip-rule="evenodd" d="M21.033 18.0529C20.3094 17.9089 19.7627 17.2884 19.7627 16.5507V15.4856C19.7627 14.1649 18.166 13.5035 17.2321 14.4374L10.4342 21.2353C9.85527 21.8142 9.85527 22.7528 10.4342 23.3317L17.2321 30.1297C18.166 31.0635 19.7627 30.4021 19.7627 29.0814V28.0648C19.7627 27.2461 20.4276 26.5782 21.2455 26.6156C25.149 26.7939 28.398 27.6957 31.115 29.3946C32.4694 30.2414 34.5803 29.046 33.8507 27.6251C31.528 23.1008 27.5368 19.3474 21.033 18.0529Z" fill="white"/>
</svg>
